assets/genshiro-kusama/logo.svg

<svg width="64" height="64" viewBox="0 0 64 64" fill="none" xmlns="http://www.w3.org/2000/svg">
<rect width="64" height="64" fill="white"/>
<path d="M64 30.3158C63.8769 28.3197 63.6308 26.1989 63.1385 24.3275C62.6462 22.3314 62.0307 20.46 61.1693 18.5887C60.3077 16.7174 59.323 15.0955 58.2154 13.4737C57.1076 11.8518 55.7538 10.3548 54.2769 8.98247C52.9231 7.61014 51.323 6.36257 49.7231 5.36452C48 4.24172 46.2769 3.24367 44.5538 2.49513C42.8307 1.74659 40.9846 1.12281 39.1384 0.748538C37.2923 0.374269 35.4461 0.124757 33.6 0C33.1077 0 32.6154 0 32 0C30.5231 0 28.923 0.124757 27.4461 0.374269C25.7231 0.623782 24.1231 0.998051 22.5231 1.49708C20.8 1.9961 19.0769 2.74464 17.3538 3.61794C15.3846 4.49123 13.5385 5.7388 11.8154 7.23587C10.7077 8.10916 9.59999 9.10721 8.61539 10.2301C7.38461 11.6024 6.15384 13.0994 5.16923 14.7212C4.18461 16.3431 3.32308 17.9649 2.58462 19.7115C1.84615 21.4581 1.23077 23.2047 0.861538 25.076C0.369231 26.8226 0.123077 28.6939 0 30.5653C0 31.0644 0 31.5634 0 32.0624C0 33.4347 0.123077 34.807 0.246154 36.1794C0.492308 38.0507 0.861538 39.7973 1.47692 41.5439C1.96923 43.2905 2.70769 45.037 3.56923 46.6589C4.43077 48.2808 5.29231 49.7778 6.4 51.1501C7.38461 52.6472 8.61539 53.8948 9.84618 55.1423C11.0769 56.3898 12.4307 57.388 13.9077 58.386C15.3846 59.384 16.8615 60.2573 18.4615 61.0059C19.9384 61.7544 21.5385 62.3782 23.2616 62.7525C24.8615 63.2515 26.5846 63.501 28.3077 63.7505C29.5385 63.8753 30.7693 64 32.1231 64C32.6154 64 32.9846 64 33.477 64C35.2 63.8753 36.923 63.7505 38.6461 63.3762C40.3692 63.002 42.0923 62.5029 43.6923 61.8792C45.4153 61.2554 47.0154 60.5069 48.4923 59.5088C50.0923 58.5107 51.5692 57.5127 52.9231 56.2651C54.4 55.0175 55.6307 53.77 56.8615 52.2729C58.0923 50.7758 59.2 49.154 60.0615 47.5322C61.0461 45.7856 61.7846 44.039 62.4 42.1676C63.0154 40.2963 63.5077 38.3002 63.7538 36.3041C64 34.9318 64 33.4347 64 31.9377C64 31.4386 64 30.9396 64 30.3158ZM28.3077 62.2534C28.6769 58.386 28.923 55.6414 29.0462 53.5205C30.1538 53.6452 31.2616 53.77 32.4923 53.77C32.6154 55.1423 32.7385 56.5147 32.8615 57.5127C32.9846 58.885 33.1077 60.5069 33.2308 62.3782C32.8615 62.3782 32.4923 62.3782 32.1231 62.3782C30.7693 62.5029 29.5385 62.3782 28.3077 62.2534ZM4.92308 45.9103C6.15384 45.2866 7.50769 44.6628 8.73844 44.039C10.2154 43.2905 11.8154 42.5419 13.2923 41.7934C13.7847 42.7914 14.4 43.7895 15.0154 44.7875C14.4 45.2866 13.7847 45.6609 13.5385 45.9103C11.3231 47.5322 10.4615 48.1559 7.63076 50.2768C6.64615 48.9045 5.66153 47.5322 4.92308 45.9103ZM1.6 30.5653C1.72307 28.8188 1.96923 27.0722 2.33846 25.4503C4.30769 25.9493 6.03077 26.4483 6.76923 26.6979C7.63076 26.9473 9.59999 27.4464 11.2 27.9455C11.3231 27.9455 11.4461 27.9455 11.4461 28.0702C11.2 29.193 11.0769 30.3158 11.0769 31.5634C8.24615 31.3138 4.67692 30.9396 1.96923 30.6901C1.84615 30.6901 1.72307 30.6901 1.72307 30.6901C1.6 30.6901 1.6 30.5653 1.6 30.5653ZM12.9231 8.35867C14.8923 10.3548 16.7384 12.7251 18.7077 15.4698C17.723 16.2183 16.8615 17.0916 16.1231 18.0897C15.0154 16.9668 13.7847 15.7193 12.6769 14.4717C11.6923 13.4737 10.7077 12.3509 9.72304 11.3528C10.7077 10.2301 11.6923 9.23194 12.9231 8.35867ZM32 1.49708C32.4923 1.49708 32.9846 1.49708 33.3538 1.49708C33.2308 2.74464 33.1077 3.86744 33.1077 4.8655C32.9846 6.61209 32.7385 8.48343 32.6154 10.3548C32.4923 10.3548 32.4923 10.3548 32.3692 10.3548C31.1384 10.3548 29.9077 10.4795 28.6769 10.7291C28.3077 7.61014 27.9384 4.74075 27.5692 1.87134C29.0462 1.62183 30.5231 1.49708 32 1.49708ZM48 38.1754C47.6307 39.1735 47.1384 40.1716 46.5231 41.0449C46.0308 41.9182 45.2923 42.7914 44.6769 43.54C43.9385 44.2885 43.2 44.9123 42.4616 45.5361C41.7231 46.1599 40.8615 46.6589 40 47.1579C39.1384 47.5322 38.2769 48.0312 37.4153 48.2808C36.5538 48.5302 35.6923 48.7798 34.7077 48.9045C33.9692 49.0292 33.2308 49.0292 32.3692 49.0292C32.2462 49.0292 32.1231 49.0292 32 49.0292C31.1384 49.0292 30.2769 48.9045 29.4153 48.7798C28.5539 48.655 27.6923 48.4055 26.9538 48.1559C26.0923 47.9065 25.3538 47.5322 24.6154 47.1579C23.8769 46.7836 23.1384 46.2846 22.4 45.7856C21.7846 45.2866 21.0462 44.7876 20.5539 44.1638C19.9384 43.54 19.4461 42.9162 18.8308 42.1676C18.3385 41.4191 17.8462 40.6706 17.4769 39.922C17.1077 39.1735 16.7384 38.3002 16.4923 37.4269C16.2461 36.5536 16 35.6803 15.8769 34.807C15.7538 33.9337 15.6308 33.0604 15.6308 32.1871V32.0624C15.6308 31.1891 15.7538 30.1911 15.8769 29.3178C16 28.3197 16.2461 27.4464 16.6154 26.5731C16.9846 25.6998 17.3538 24.8265 17.723 23.9532C18.2153 23.0799 18.7077 22.3314 19.3231 21.5829C19.9384 20.8343 20.5539 20.2106 21.2923 19.462C22.0308 18.8382 22.7693 18.2144 23.6308 17.7154C24.4923 17.2164 25.3538 16.7174 26.2154 16.3431C27.2 15.9688 28.0615 15.7193 29.0462 15.4698C30.0308 15.2203 31.0154 15.2203 32.1231 15.2203C32.2462 15.2203 32.2462 15.2203 32.3692 15.2203C33.3538 15.2203 34.3384 15.345 35.3231 15.4698C36.3077 15.5945 37.4153 15.9688 38.2769 16.3431C39.2616 16.7174 40.2462 17.2164 41.1077 17.8401C41.9693 18.464 42.8307 19.0877 43.6923 19.8363C44.5538 20.5848 45.2923 21.4581 45.9076 22.3314C46.5231 23.2047 47.1384 24.2027 47.5077 25.2008C48 26.1989 48.3692 27.3216 48.6153 28.4445C48.8615 29.5672 48.9846 30.6901 48.9846 31.8129C48.9846 31.9377 48.9846 32.0624 48.9846 32.1871C48.9846 33.1852 48.8615 34.1832 48.7385 35.1813C48.7385 36.1794 48.4923 37.1774 48 38.1754ZM49.8461 19.462C51.2 18.464 52.677 17.4659 53.7846 16.5926C54.2769 16.2183 55.2615 15.5945 56 14.9708C56.123 14.846 56.4923 14.5965 56.7385 14.4717C57.8461 15.9688 58.8307 17.7154 59.5692 19.462C57.4769 20.46 54.8923 21.7076 51.8154 23.2047C51.323 21.8323 50.7077 20.5848 49.8461 19.462ZM47.1384 16.2183C46.1538 15.2203 45.0461 14.4717 43.9384 13.7232C45.6615 11.1034 47.3846 8.48343 48.7385 6.61209C50.3384 7.61014 51.8154 8.85774 53.0461 10.1052C51.2 12.1014 49.2308 14.0975 47.1384 16.2183ZM41.7231 8.85774C41.6 9.10721 41.1077 10.2301 40.3692 11.9766C39.1384 11.4776 37.9076 11.1034 36.5538 10.8538C36.8 9.98051 36.923 9.48149 36.923 9.35676C37.1692 8.60819 37.5385 6.73685 37.9076 5.36452C38.0308 4.74075 38.4 3.74269 38.6461 2.37037C40.3692 2.74464 42.0923 3.36842 43.8154 3.9922C42.7077 6.61209 41.8461 8.60819 41.7231 8.85774ZM23.2616 4.36647C23.6308 5.61404 24.2462 8.48343 24.8615 10.7291C24.9846 10.9785 24.9846 11.3528 25.1077 11.7271C23.8769 12.1014 22.7693 12.7251 21.6615 13.3489C21.0462 11.8518 20.4307 10.7291 20.3077 10.2301C20.0616 9.48149 19.0769 7.48538 17.9692 4.99025C19.5692 4.24172 21.1692 3.49318 22.8923 2.99415C23.0154 3.49318 23.1384 3.9922 23.2616 4.36647ZM13.9077 21.0839C13.2923 22.0819 12.8 23.2047 12.3077 24.4523C10.5846 23.579 8.61539 22.5809 6.4 21.5829C5.53846 21.2086 4.67692 20.7096 3.81538 20.3353C4.55385 18.7134 5.2923 17.0916 6.27692 15.5945C8.61539 17.2164 11.3231 19.2124 13.9077 21.0839ZM3.44615 35.9298C5.41538 35.8051 8.49233 35.4308 11.2 35.1813C11.3231 36.3041 11.5693 37.5517 11.9384 38.6744C11.8154 38.6744 11.5693 38.7993 11.4461 38.7993C8.86158 39.5477 5.41538 40.421 2.95385 41.1696C2.46154 39.5477 2.09231 37.8011 1.84615 36.0546C2.33846 35.9298 2.83077 35.9298 3.44615 35.9298ZM17.2307 47.5322C17.9692 48.2808 18.8308 49.0292 19.8154 49.6531C17.9692 52.3977 16.3692 54.7681 15.8769 55.5166C15.5077 56.0156 15.1385 56.6394 14.7693 57.1384C13.4154 56.2651 12.1846 55.1423 10.9538 54.0195C13.0462 51.8987 15.2616 49.6531 17.2307 47.5322ZM22.6461 51.5244C23.6308 52.0234 24.6154 52.5224 25.7231 52.8967C25.4769 53.6452 24.8615 56.1404 24.2462 58.386C24 59.384 23.7539 60.3821 23.5077 61.3802C21.9077 60.8811 20.4307 60.3821 18.9538 59.6336C20.0616 57.2631 21.2923 54.5185 22.6461 51.5244ZM37.6615 60.3821C37.4153 59.2593 36.8 57.2631 36.4307 55.7661C36.3077 55.2671 36.0615 54.5185 35.8154 53.5205C37.0462 53.271 38.1538 53.0215 39.2615 52.6472C39.8769 53.8948 40.3692 55.0175 40.4923 55.5166C40.6154 55.8908 41.4769 57.7622 42.7077 60.5069C41.1077 61.1306 39.5077 61.6296 37.9076 61.8792C37.9076 61.3801 37.7846 60.8811 37.6615 60.3821ZM46.1538 56.3898C45.5385 55.5166 44.1846 53.3957 42.7077 51.2749C43.8154 50.6511 44.8 49.9025 45.7846 49.1541C46.7692 50.1521 47.8769 51.2749 48.8615 52.3977C49.8461 53.3957 50.7077 54.3938 51.6923 55.2671C50.3384 56.3898 48.9846 57.388 47.3846 58.2613C47.0154 57.6374 46.5231 57.0137 46.1538 56.3898ZM53.7846 50.2768C52.1846 49.154 49.9692 47.4075 48.6153 46.4093C49.4769 45.4113 50.2154 44.2885 50.9539 43.1657C51.5692 43.4152 51.9385 43.6647 52.0615 43.6647C52.4308 43.9142 54.4 44.7876 56.2462 45.6609C56.9846 46.0351 57.8461 46.4093 58.5846 46.7836C57.7231 48.4055 56.6153 49.9025 55.5077 51.2749C54.8923 51.0254 54.4 50.6511 53.7846 50.2768ZM54.5231 40.0468C53.9077 39.922 53.2923 39.6726 52.6769 39.5477C53.1693 38.3002 53.4154 36.9279 53.6616 35.5555C56.123 35.8051 58.3384 35.9298 59.8153 36.0546C60.6769 36.1794 61.4154 36.1794 62.1539 36.3041C61.9077 38.1754 61.4154 40.0468 60.8 41.7934C58.8307 41.1696 56.123 40.421 54.5231 40.0468ZM60.5538 30.6901C58.4615 30.8148 55.7538 31.0644 53.9077 31.3138C53.9077 29.8168 53.6615 28.4445 53.2923 27.0722C55.3846 26.4483 57.2308 25.9493 61.4154 24.8265C61.4154 24.8265 61.4154 24.8265 61.5384 24.8265C62.0307 26.6979 62.2769 28.5692 62.4 30.5653C61.7846 30.5653 61.1693 30.5653 60.5538 30.6901Z" fill="#E8662D"/>
<path d="M29.6619 35.8055C29.5389 35.6807 29.4158 35.5559 29.2927 35.5559C29.1696 35.4312 29.1696 35.4312 29.0466 35.3064C28.9234 35.1816 28.8004 35.0569 28.6773 34.9322C28.5543 34.8074 28.5543 34.6826 28.4311 34.5579C28.4311 34.4331 28.3081 34.4331 28.3081 34.3084C28.3081 34.3084 28.3081 34.1836 28.185 34.1836C28.185 34.0589 28.062 33.9341 28.062 33.6846C28.062 33.5598 27.9388 33.3103 27.9388 33.1856C27.9388 33.0608 27.9388 32.9361 27.9388 32.8113V32.6865C27.9388 32.437 27.9388 32.3123 27.9388 32.3123C27.9388 32.3123 27.5696 32.3123 26.4619 32.3123C25.7234 32.3123 24.7388 32.3123 23.2619 32.3123C20.5542 32.3123 18.585 32.3123 18.4619 32.3123C18.4619 32.3123 18.4619 32.3123 18.4619 32.437C18.4619 32.6865 18.4619 33.9341 18.4619 34.4331C18.4619 34.5579 18.4619 34.6826 18.4619 34.8074C18.585 35.5559 18.7081 36.3045 18.8312 37.053C19.0773 37.8015 19.3235 38.4254 19.5696 39.1738C19.9388 39.9224 20.3081 40.5462 20.6773 41.0452C21.0465 41.4195 21.2927 41.9185 21.785 42.2928C21.9081 42.4175 22.0311 42.5423 22.2773 42.667C22.6465 43.0413 23.1389 43.4156 23.6312 43.7898C23.7542 43.9146 23.8773 43.9146 24.0003 44.0394C24.3696 44.2889 24.8619 44.6631 24.985 44.6631C24.985 44.6631 25.1081 44.4136 25.3542 44.1641C25.4773 43.9146 26.2157 42.7918 26.8312 41.7937C27.4465 40.7957 28.4311 39.2987 29.0466 38.3005C29.0466 38.3005 29.0466 38.1758 29.1696 38.1758L30.2773 36.4292H30.1542C29.785 35.9302 29.6619 35.9302 29.6619 35.8055Z" fill="#E8662D"/>
<path d="M26.8304 21.8329C27.0765 22.2072 27.5688 23.2052 28.5535 25.0766C28.7996 25.5756 29.0458 26.0746 29.4149 26.5736C29.7842 27.3222 30.1534 27.8212 30.1534 27.9459C30.1534 27.9459 30.1534 27.9459 30.3996 27.9459H30.5227C30.7688 27.8212 31.015 27.8212 31.2612 27.6965C31.5073 27.6965 31.7535 27.5717 31.9996 27.5717C32.1226 27.5717 32.1226 27.5717 32.2458 27.5717C32.615 27.5717 32.9842 27.5717 33.3534 27.5717C33.7227 27.5717 33.9689 27.6965 34.338 27.8212H34.4612H34.5842C34.5842 27.8212 34.7073 27.5717 34.9535 27.1974C34.9535 27.0727 35.0765 26.9479 35.1996 26.6984C35.6919 25.7004 36.7996 23.829 37.2919 23.0805C37.415 22.8309 37.7842 22.2072 38.0304 21.8329C38.2765 21.4586 38.6457 20.7101 38.8919 20.3359C39.138 19.8368 39.3842 19.4626 39.3842 19.4626V19.3377L38.8919 19.0883C38.3996 18.8387 37.9073 18.5893 37.415 18.3397C36.5534 17.9654 35.6919 17.716 34.8304 17.4664C34.4612 17.3417 34.0919 17.3417 33.7227 17.3417C33.3534 17.3417 32.7381 17.3417 32.1226 17.3417C31.7535 17.3417 31.5073 17.3417 31.2612 17.3417C30.6457 17.4664 30.0304 17.5912 29.4149 17.716C28.5534 17.9654 27.815 18.215 26.9535 18.5893C26.4612 18.8387 25.7227 19.213 25.5996 19.3377C25.5996 19.3377 25.8457 19.8368 26.4612 20.8349C26.5842 21.2092 26.7073 21.4586 26.8304 21.8329Z" fill="#E8662D"/>
<path d="M35.1998 33.559C35.3228 33.3095 35.3228 33.06 35.4459 32.9352C35.569 32.6857 35.569 32.3114 35.569 32.062C35.569 31.9372 35.569 31.9372 35.569 31.9372C35.569 31.6877 35.569 31.4381 35.4459 31.1887C35.4459 31.0639 35.3228 30.8144 35.3228 30.6896C35.1998 30.5648 35.1998 30.4401 35.0767 30.3154C34.9536 30.1906 34.8305 29.9411 34.7075 29.8164C34.5844 29.6915 34.5844 29.6915 34.4613 29.5668C34.2152 29.3173 33.969 29.1925 33.7229 29.0678C33.4767 28.9431 33.1074 28.8182 32.8613 28.8182H32.7382C32.4921 28.8182 32.2459 28.8182 31.9998 28.8182C31.7536 28.8182 31.3843 28.9431 31.1382 29.0678C30.892 29.1925 30.6459 29.3173 30.3997 29.4421C30.2767 29.5668 30.0305 29.6915 29.9074 29.8164L29.7844 29.9411C29.6613 30.0658 29.5382 30.3154 29.4151 30.5648C29.2921 30.8144 29.1689 30.9391 29.1689 31.1887C29.1689 31.3134 29.0459 31.4381 29.0459 31.6877C29.0459 31.9372 29.0459 32.0619 29.0459 32.3114C29.0459 32.4362 29.0459 32.561 29.0459 32.6857C29.0459 32.8105 29.0459 32.9352 29.1689 33.1847V33.3095V33.4343C29.1689 33.559 29.2921 33.559 29.2921 33.6838C29.2921 33.8085 29.4151 33.8085 29.4151 33.9333C29.4151 34.058 29.5382 34.058 29.5382 34.1828C29.5382 34.1828 29.5382 34.3075 29.6613 34.3075C29.7844 34.4323 29.7844 34.4323 29.9074 34.5571L30.0305 34.6818C30.1536 34.8066 30.1536 34.8066 30.2767 34.9313C30.3997 35.0561 30.3997 35.0561 30.5228 35.0561C30.6459 35.0561 30.6459 35.1808 30.769 35.1808C30.892 35.1808 31.0152 35.3056 31.1382 35.3056C31.2613 35.3056 31.3843 35.4304 31.5075 35.4304C31.6305 35.4304 31.8767 35.4304 31.9998 35.5551C32.1228 35.5551 32.369 35.5551 32.4921 35.5551C32.7382 35.5551 32.8613 35.5551 33.1074 35.4304C33.3536 35.3056 33.5997 35.3056 33.7229 35.1808C33.969 35.0561 34.2152 34.9313 34.4613 34.6818C34.7075 34.4323 34.8305 34.3075 34.9536 34.058C35.1998 33.6838 35.1998 33.6838 35.1998 33.559Z" fill="#E8662D"/>
<path d="M46.2772 32.1869H44.308H41.6004H36.9234V32.3116C36.9234 32.5612 36.8003 32.6859 36.8003 32.9355C36.6773 33.3097 36.6773 33.6839 36.4311 34.0582C36.4311 34.183 36.308 34.183 36.308 34.3078C36.1849 34.5572 36.0618 34.8068 35.9388 34.9315C35.6926 35.3058 35.5695 35.5554 35.3234 35.6801C35.2003 35.8048 35.0772 35.8048 35.0772 35.9296C34.9542 36.0544 34.8311 36.0544 34.8311 36.1791C34.8311 36.1791 34.9542 36.3038 35.0772 36.5534C35.5695 37.3019 36.4311 38.799 37.4157 40.2961C38.4003 41.9179 39.385 43.415 39.508 43.6645C39.508 43.7893 39.6311 43.914 39.8773 44.1636C40.0003 44.413 40.1234 44.5377 40.1234 44.5377C40.1234 44.5377 40.6157 44.2883 40.9849 44.0387C41.108 44.0387 41.108 43.914 41.2311 43.914C41.9695 43.415 42.4619 42.916 43.0773 42.4169C43.6926 41.7931 44.1849 41.1694 44.6772 40.5456C44.6772 40.4208 44.8003 40.4208 44.8003 40.2961C45.2926 39.5475 45.6619 38.6742 46.0311 37.801C46.2772 36.9277 46.5234 36.0544 46.6465 35.1811V35.0563C46.6465 34.4325 46.7695 33.1849 46.6465 32.6859L46.2772 32.1869Z" fill="#E8662D"/>
</svg>

<svg viewBox="0 0 64 64" xmlns="http://www.w3.org/2000/svg">
    <path fill="#fff" fill-rule="evenodd" d="M64 32C64 14.327 49.673 0 32 0 14.327 0 0 14.327 0 32c0 17.673 14.327 32 32 32 17.673 0 32-14.327 32-32Z"/>
    <path fill="#e8662d" d="M64 30.316c-.123-1.996-.37-4.117-.861-5.989-.493-1.996-1.108-3.867-1.97-5.738-.861-1.872-1.846-3.493-2.954-5.115-1.107-1.622-2.461-3.12-3.938-4.492-1.354-1.372-2.954-2.62-4.554-3.617-1.723-1.123-3.446-2.121-5.17-2.87-1.722-.748-3.568-1.372-5.415-1.746A42.151 42.151 0 0 0 33.6 0H32c-1.477 0-3.077.125-4.554.374-1.723.25-3.323.624-4.923 1.123-1.723.5-3.446 1.248-5.17 2.12-1.968.874-3.815 2.122-5.538 3.619-1.107.873-2.215 1.871-3.2 2.994-1.23 1.372-2.461 2.87-3.446 4.491-.984 1.622-1.846 3.244-2.584 4.99-.739 1.747-1.354 3.494-1.723 5.365-.493 1.747-.739 3.618-.862 5.49v1.496c0 1.373.123 2.745.246 4.117.246 1.872.616 3.618 1.23 5.365.493 1.747 1.232 3.493 2.093 5.115.862 1.622 1.723 3.119 2.831 4.491.985 1.497 2.215 2.745 3.446 3.992 1.23 1.248 2.585 2.246 4.062 3.244 1.477.998 2.954 1.871 4.554 2.62 1.476.748 3.076 1.372 4.8 1.746 1.6.5 3.323.749 5.046.998 1.23.125 2.461.25 3.815.25h1.354c1.723-.125 3.446-.25 5.17-.624a33.73 33.73 0 0 0 5.045-1.497c1.723-.624 3.323-1.372 4.8-2.37 1.6-.998 3.077-1.996 4.431-3.244a29.98 29.98 0 0 0 3.938-3.992c1.231-1.497 2.339-3.119 3.2-4.74.985-1.747 1.724-3.494 2.339-5.365.615-1.872 1.108-3.868 1.354-5.864.246-1.372.246-2.87.246-4.366v-1.622ZM28.308 62.253c.369-3.867.615-6.612.738-8.733 1.108.125 2.216.25 3.446.25.123 1.372.246 2.745.37 3.743.123 1.372.246 2.994.369 4.865h-1.108c-1.354.125-2.584 0-3.815-.125ZM4.923 45.91c1.23-.623 2.585-1.247 3.815-1.871 1.477-.748 3.077-1.497 4.554-2.246.493.998 1.108 1.997 1.723 2.994-.615.5-1.23.874-1.476 1.123-2.216 1.622-3.078 2.246-5.908 4.367-.985-1.373-1.97-2.745-2.708-4.367ZM1.6 30.565c.123-1.746.37-3.493.738-5.115 1.97.5 3.693.998 4.431 1.248.862.25 2.831.748 4.431 1.247.123 0 .246 0 .246.125a15.992 15.992 0 0 0-.37 3.493c-2.83-.25-6.4-.623-9.107-.873h-.246c-.123 0-.123-.125-.123-.125ZM12.923 8.36c1.97 1.996 3.815 4.366 5.785 7.11a12.942 12.942 0 0 0-2.585 2.62c-1.108-1.122-2.338-2.37-3.446-3.617-.985-.998-1.97-2.121-2.954-3.12.985-1.122 1.97-2.12 3.2-2.993ZM32 1.497h1.354c-.123 1.248-.246 2.37-.246 3.369-.123 1.746-.37 3.617-.493 5.489h-.246c-1.23 0-2.461.124-3.692.374-.37-3.119-.739-5.988-1.108-8.858A26.556 26.556 0 0 1 32 1.497Zm16 36.678c-.37.998-.862 1.997-1.477 2.87-.492.873-1.23 1.746-1.846 2.495-.739.749-1.477 1.372-2.215 1.996-.739.624-1.6 1.123-2.462 1.622-.862.374-1.723.873-2.585 1.123-.861.25-1.723.499-2.707.623-.739.125-1.477.125-2.339.125H32c-.862 0-1.723-.125-2.585-.25-.861-.124-1.723-.374-2.461-.623-.862-.25-1.6-.624-2.339-.998-.738-.374-1.477-.873-2.215-1.372-.615-.5-1.354-.998-1.846-1.622-.616-.624-1.108-1.248-1.723-1.996-.493-.749-.985-1.497-1.354-2.246-.37-.748-.739-1.622-.985-2.495s-.492-1.747-.615-2.62-.246-1.747-.246-2.62v-.125c0-.873.123-1.87.246-2.744.123-.998.37-1.872.738-2.745l1.108-2.62c.492-.873.985-1.622 1.6-2.37.615-.749 1.23-1.372 1.97-2.121.738-.624 1.476-1.248 2.338-1.747.861-.499 1.723-.998 2.584-1.372a24.544 24.544 0 0 1 2.831-.873c.985-.25 1.97-.25 3.077-.25h.246c.985 0 1.97.125 2.954.25.985.124 2.092.499 2.954.873.985.374 1.97.873 2.83 1.497.862.624 1.724 1.248 2.585 1.996.862.749 1.6 1.622 2.216 2.495.615.874 1.23 1.872 1.6 2.87.492.998.861 2.12 1.107 3.244.246 1.122.37 2.245.37 3.368v.374c0 .998-.123 1.996-.247 2.994 0 .998-.246 1.996-.738 2.994Zm1.846-18.713c1.354-.998 2.831-1.996 3.939-2.87.492-.374 1.477-.998 2.215-1.621.123-.125.492-.374.738-.5a24.786 24.786 0 0 1 2.831 4.991c-2.092.998-4.677 2.246-7.754 3.743-.492-1.373-1.107-2.62-1.969-3.743Zm-2.708-3.244c-.984-.998-2.092-1.746-3.2-2.495 1.723-2.62 3.447-5.24 4.8-7.11 1.6.997 3.077 2.245 4.308 3.492-1.846 1.996-3.815 3.992-5.908 6.113Zm-5.415-7.36c-.123.25-.615 1.372-1.354 3.119a19.295 19.295 0 0 0-3.815-1.123c.246-.873.369-1.373.369-1.497.246-.749.616-2.62.985-3.992.123-.624.492-1.622.738-2.995 1.723.375 3.446.998 5.17 1.622-1.108 2.62-1.97 4.616-2.093 4.866ZM23.262 4.366c.369 1.248.984 4.117 1.6 6.363.123.25.123.624.246.998-1.231.374-2.339.998-3.446 1.622-.616-1.497-1.231-2.62-1.354-3.119-.246-.749-1.231-2.745-2.339-5.24 1.6-.748 3.2-1.497 4.923-1.996.123.5.246.998.37 1.372Zm-9.354 16.718c-.616.998-1.108 2.12-1.6 3.368-1.723-.873-3.693-1.871-5.908-2.87-.862-.373-1.723-.872-2.585-1.247.739-1.622 1.477-3.243 2.462-4.74 2.338 1.621 5.046 3.617 7.63 5.489ZM3.446 35.93c1.97-.125 5.046-.5 7.754-.749.123 1.123.37 2.37.738 3.493-.123 0-.369.125-.492.125-2.584.749-6.03 1.622-8.492 2.37a34.249 34.249 0 0 1-1.108-5.114c.492-.125.985-.125 1.6-.125Zm13.785 11.602c.738.749 1.6 1.497 2.584 2.121-1.846 2.745-3.446 5.115-3.938 5.864-.37.499-.739 1.122-1.108 1.621-1.354-.873-2.584-1.996-3.815-3.118 2.092-2.121 4.308-4.367 6.277-6.488Zm5.415 3.992c.985.5 1.97.998 3.077 1.373-.246.748-.861 3.243-1.477 5.489l-.738 2.994c-1.6-.499-3.077-.998-4.554-1.746 1.108-2.37 2.338-5.115 3.692-8.11Zm15.015 8.858c-.246-1.123-.861-3.119-1.23-4.616-.123-.499-.37-1.247-.616-2.245 1.231-.25 2.339-.5 3.447-.874.615 1.248 1.107 2.37 1.23 2.87.123.374.985 2.245 2.216 4.99-1.6.624-3.2 1.123-4.8 1.372 0-.499-.123-.998-.247-1.497Zm8.493-3.992c-.615-.873-1.97-2.994-3.446-5.115 1.107-.624 2.092-1.372 3.077-2.12.984.997 2.092 2.12 3.077 3.243.984.998 1.846 1.996 2.83 2.87-1.354 1.122-2.707 2.12-4.307 2.993-.37-.624-.862-1.247-1.231-1.871Zm7.63-6.113c-1.6-1.123-3.815-2.87-5.169-3.868.862-.998 1.6-2.12 2.339-3.243.615.25.984.499 1.108.499.369.25 2.338 1.123 4.184 1.996.739.374 1.6.748 2.339 1.123-.862 1.621-1.97 3.119-3.077 4.49-.616-.249-1.108-.623-1.723-.997Zm.74-10.23c-.616-.125-1.232-.374-1.847-.5.492-1.247.738-2.62.985-3.991 2.461.25 4.676.374 6.153.499.862.124 1.6.124 2.339.25-.246 1.87-.739 3.742-1.354 5.488-1.97-.623-4.677-1.372-6.277-1.746Zm6.03-9.357c-2.093.125-4.8.374-6.646.624 0-1.497-.247-2.87-.616-4.242 2.093-.624 3.939-1.123 8.123-2.245h.123c.493 1.87.739 3.742.862 5.738-.615 0-1.23 0-1.846.125Z"/>
    <path fill="#e8662d" d="M29.662 35.806c-.123-.125-.246-.25-.37-.25l-.245-.25-.37-.374c-.123-.125-.123-.25-.246-.374 0-.125-.123-.125-.123-.25 0 0 0-.124-.123-.124 0-.125-.123-.25-.123-.5 0-.124-.123-.374-.123-.498v-.874h-9.477v2.495l.37 2.246c.245.748.491 1.372.738 2.12.369.75.738 1.373 1.107 1.872.37.374.616.873 1.108 1.248.123.124.246.25.492.374.37.374.862.749 1.354 1.123.123.125.246.125.37.25.369.249.86.623.984.623 0 0 .123-.25.37-.499.122-.25.86-1.372 1.476-2.37s1.6-2.495 2.216-3.494c0 0 0-.124.123-.124l1.107-1.747h-.123c-.369-.499-.492-.499-.492-.623Z"/>
    <path fill="#e8662d" d="M26.83 21.833c.247.374.739 1.372 1.723 3.244.247.499.493.998.862 1.497.37.748.738 1.247.738 1.372h.37c.246-.125.492-.125.738-.25.246 0 .492-.124.739-.124h1.353c.37 0 .616.125.985.25h.246s.123-.25.37-.625c0-.124.123-.25.246-.499.492-.998 1.6-2.869 2.092-3.618a16.4 16.4 0 0 1 .738-1.247c.247-.374.616-1.123.862-1.497.246-.5.492-.873.492-.873v-.125l-.492-.25-1.477-.748c-.862-.375-1.723-.624-2.585-.874-.369-.124-.738-.124-1.107-.124H31.26l-1.846.374c-.862.25-1.6.499-2.461.873-.493.25-1.231.624-1.354.749 0 0 .246.499.861 1.497.123.374.246.624.37.998Z"/>
    <path fill="#e8662d" d="M35.2 33.559c.123-.25.123-.499.246-.624.123-.25.123-.624.123-.873v-.125c0-.25 0-.499-.123-.748 0-.125-.123-.375-.123-.5-.123-.124-.123-.249-.246-.374-.123-.124-.246-.374-.37-.499l-.246-.25c-.246-.249-.492-.374-.738-.498-.246-.125-.616-.25-.862-.25H32c-.246 0-.616.125-.862.25l-.738.374c-.123.125-.37.25-.493.374l-.123.125c-.123.125-.246.374-.369.624s-.246.374-.246.624c0 .124-.123.25-.123.499v.998c0 .125 0 .25.123.499v.249c0 .125.123.125.123.25 0 .124.123.124.123.25 0 .124.123.124.123.249 0 0 0 .124.123.124l.246.25.123.125.247.25c.123.124.123.124.246.124s.123.125.246.125.246.125.37.125c.122 0 .245.124.369.124.123 0 .369 0 .492.125h.492c.246 0 .37 0 .615-.125.247-.124.493-.124.616-.25.246-.124.492-.249.738-.498.247-.25.37-.375.493-.624.246-.374.246-.374.246-.499Z"/>
    <path fill="#e8662d" d="M46.277 32.187h-9.354v.125c0 .25-.123.374-.123.624-.123.374-.123.748-.369 1.122 0 .125-.123.125-.123.25-.123.25-.246.499-.37.623-.245.375-.369.624-.615.75-.123.124-.246.124-.246.249-.123.124-.246.124-.246.25 0 0 .123.124.246.373.492.749 1.354 2.246 2.339 3.743.984 1.622 1.969 3.119 2.092 3.369 0 .124.123.249.37.499.122.249.245.374.245.374s.493-.25.862-.5c.123 0 .123-.124.246-.124.739-.499 1.23-.998 1.846-1.497.616-.624 1.108-1.248 1.6-1.871 0-.125.123-.125.123-.25.493-.748.862-1.622 1.231-2.495.246-.873.492-1.747.616-2.62v-.125c0-.624.123-1.871 0-2.37l-.37-.5Z"/>
</svg>
